dist/img/svg/isource-icon-02.svg

<svg viewBox="0 0 137 29" fill="#000000" xmlns="http://www.w3.org/2000/svg"><path d="M18.018 9.028H9.011v9.008h9.007V9.028Z"/><path fill-rule="evenodd" clip-rule="evenodd" d="M0 0h27.026v27.026H0V0Zm6.006 9.028h.001v9.009h-.001v3.003h.001v.004H9.01v-.005h12.01V6.025H6.007v3.003Z"/><path d="M36.063 3.752v10.663h2.735V3.752h-2.736Zm0-3.707v2.537h2.735V.045h-2.736ZM43.985 3.751H41.25v10.663h2.735v-5.55c0-1.684.397-3.15 2.2-3.15 1.546 0 1.843 1.208 1.843 2.576v6.124h2.736V7.695c0-2.636-1.13-4.182-3.687-4.182-1.328 0-2.477.555-3.092 1.645V3.751ZM61.618 6.962c-.376-2.457-2.477-3.488-4.697-3.488-2.299 0-4.36 1.268-4.36 3.171 0 1.942 1.328 2.775 3.33 3.19l1.585.338c.931.218 1.744.515 1.744 1.308 0 .773-.733 1.209-1.922 1.209-1.427 0-2.14-.773-2.3-1.804h-2.636c.258 2.438 2.24 3.786 4.856 3.786 2.418 0 4.618-1.308 4.618-3.449 0-2.2-1.803-2.735-3.924-3.21l-1.427-.318c-1.01-.218-1.427-.654-1.427-1.228 0-.654.714-1.031 1.724-1.031 1.269 0 2.062.634 2.28 1.526h2.556ZM68.68 12.57c-1.506 0-2.498-1.287-2.498-3.487 0-2.14.992-3.469 2.498-3.469 1.427 0 2.438 1.407 2.438 3.488 0 2.082-1.011 3.469-2.438 3.469Zm-2.398 5.313v-4.817c.693 1.19 1.942 1.606 3.052 1.606 2.537 0 4.658-2.18 4.658-5.59 0-3.349-2.062-5.569-4.638-5.569-1.348 0-2.498.595-3.072 1.606V3.75h-2.735v14.131h2.735ZM85.804 9.836c.1-3.766-1.942-6.323-5.232-6.323-3.151 0-5.351 2.359-5.351 5.53 0 3.072 2.002 5.629 5.43 5.629 2.914 0 4.46-1.764 5.034-3.35h-2.814c-.555.932-1.387 1.23-2.24 1.23-1.308 0-2.536-.893-2.695-2.716h7.868Zm-5.252-4.32c1.15 0 2.418.633 2.478 2.437h-5.054c.218-1.804 1.545-2.438 2.576-2.438ZM92.514 3.513c-3.19 0-5.35 2.34-5.35 5.59 0 3.23 2.04 5.569 5.231 5.569 2.22 0 4.42-.971 5.055-3.885h-2.617c-.376 1.269-1.347 1.764-2.299 1.764-1.506 0-2.576-1.248-2.576-3.488 0-2.22 1.13-3.429 2.556-3.429 1.05 0 2.002.733 2.22 1.764h2.616c-.376-2.636-2.596-3.885-4.836-3.885ZM99.46 3.751h-1.507v1.883h1.507v5.906c0 2.12.455 2.874 2.913 2.874h2.002v-1.962h-.833c-.971 0-1.347-.218-1.347-1.308v-5.51h2.219V3.75h-2.219V.857H99.46v2.894ZM110.804 5.654c1.506 0 2.577 1.209 2.577 3.448 0 2.24-1.071 3.43-2.577 3.43s-2.576-1.19-2.576-3.43 1.07-3.448 2.576-3.448Zm0 9.018c2.696 0 5.352-1.843 5.352-5.57 0-3.745-2.656-5.589-5.352-5.589-2.695 0-5.351 1.844-5.351 5.59 0 3.726 2.656 5.569 5.351 5.569ZM124 3.81a5.98 5.98 0 0 0-.595-.039c-1.249 0-2.2.516-2.814 1.843V3.751h-2.695v10.663h2.735V8.825c0-2.002.891-2.497 2.239-2.497.396 0 .734 0 1.13.06V3.81ZM38.712 26.077c-.776 0-1.287-.663-1.287-1.797 0-1.102.51-1.786 1.287-1.786.735 0 1.256.724 1.256 1.797 0 1.072-.521 1.786-1.256 1.786Zm-1.236 2.737v-2.481c.358.612 1.001.827 1.573.827 1.307 0 2.4-1.123 2.4-2.88 0-1.725-1.063-2.869-2.39-2.869-.694 0-1.286.307-1.583.827v-.704h-1.409v7.28h1.41ZM45.504 21.564a3.088 3.088 0 0 0-.306-.02c-.644 0-1.134.265-1.45.949v-.96H42.36v5.493h1.41v-2.879c0-1.031.459-1.287 1.153-1.287.204 0 .378 0 .582.031v-1.327ZM48.617 22.514c.776 0 1.327.623 1.327 1.777 0 1.153-.55 1.766-1.327 1.766-.776 0-1.327-.613-1.327-1.766 0-1.154.551-1.777 1.327-1.777Zm0 4.646c1.389 0 2.757-.95 2.757-2.87 0-1.93-1.368-2.879-2.757-2.879-1.388 0-2.757.95-2.757 2.88 0 1.92 1.369 2.869 2.757 2.869ZM54.749 21.411c-1.644 0-2.757 1.205-2.757 2.88 0 1.664 1.052 2.869 2.696 2.869 1.143 0 2.276-.5 2.603-2.002h-1.347c-.194.654-.695.91-1.185.91-.776 0-1.327-.644-1.327-1.798 0-1.143.582-1.766 1.317-1.766a1.17 1.17 0 0 1 1.143.909h1.348c-.194-1.358-1.337-2.002-2.491-2.002ZM63.278 24.668c.05-1.94-1.001-3.257-2.696-3.257-1.623 0-2.757 1.215-2.757 2.849 0 1.582 1.031 2.9 2.798 2.9 1.5 0 2.297-.91 2.593-1.726h-1.45c-.286.48-.714.633-1.154.633-.673 0-1.306-.46-1.388-1.399h4.054Zm-2.706-2.225c.592 0 1.245.326 1.276 1.255h-2.603c.112-.929.796-1.255 1.327-1.255ZM68.646 23.188c-.194-1.266-1.276-1.797-2.42-1.797-1.184 0-2.246.653-2.246 1.634 0 1 .684 1.429 1.715 1.643l.817.174c.48.112.898.265.898.674 0 .398-.377.623-.99.623-.735 0-1.102-.399-1.184-.93h-1.358c.132 1.256 1.154 1.95 2.501 1.95 1.246 0 2.379-.673 2.379-1.776 0-1.133-.93-1.409-2.021-1.654L66 23.566c-.52-.113-.735-.337-.735-.633 0-.337.368-.531.889-.531.653 0 1.061.326 1.174.786h1.317ZM74.05 23.188c-.194-1.266-1.276-1.797-2.42-1.797-1.184 0-2.245.653-2.245 1.634 0 1 .683 1.429 1.715 1.643l.817.174c.48.112.898.265.898.674 0 .398-.378.623-.99.623-.736 0-1.103-.399-1.185-.93h-1.358c.133 1.256 1.154 1.95 2.502 1.95 1.245 0 2.379-.673 2.379-1.776 0-1.133-.93-1.409-2.022-1.654l-.735-.163c-.52-.113-.735-.337-.735-.633 0-.337.367-.531.888-.531.654 0 1.062.326 1.174.786h1.317ZM77.482 22.514c.776 0 1.328.623 1.328 1.777 0 1.153-.552 1.766-1.328 1.766s-1.327-.613-1.327-1.766c0-1.154.551-1.777 1.327-1.777Zm0 4.646c1.389 0 2.757-.95 2.757-2.87 0-1.93-1.368-2.879-2.757-2.879-1.388 0-2.756.95-2.756 2.88 0 1.92 1.368 2.869 2.756 2.869ZM84.28 21.564a3.08 3.08 0 0 0-.306-.02c-.643 0-1.133.265-1.45.949v-.96h-1.388v5.493h1.409v-2.879c0-1.031.46-1.287 1.153-1.287.205 0 .378 0 .582.031v-1.327Z"/></svg>

<svg width="124" height="29" viewBox="0 0 124 29" fill="none" xmlns="http://www.w3.org/2000/svg">
<g clip-path="url(#clip0_508_753)">
<path d="M18.018 9.028H9.011V18.036H18.018V9.028Z" fill="#1400DC"/>
<path fill-rule="evenodd" clip-rule="evenodd" d="M0 0H27.026V27.026H0V0ZM6.006 9.028H6.007V18.037H6.006V21.04H6.007V21.044H9.01V21.039H21.02V6.025H6.007V9.028H6.006Z" fill="#1400DC"/>
<path d="M36.063 3.752V14.415H38.798V3.752H36.062H36.063ZM36.063 0.0449982V2.582H38.798V0.0449982H36.062H36.063ZM43.985 3.751H41.25V14.414H43.985V8.864C43.985 7.18 44.382 5.714 46.185 5.714C47.731 5.714 48.028 6.922 48.028 8.29V14.414H50.764V7.695C50.764 5.059 49.634 3.513 47.077 3.513C45.749 3.513 44.6 4.068 43.985 5.158V3.751ZM61.618 6.962C61.242 4.505 59.141 3.474 56.921 3.474C54.622 3.474 52.561 4.742 52.561 6.645C52.561 8.587 53.889 9.42 55.891 9.835L57.476 10.173C58.407 10.391 59.22 10.688 59.22 11.481C59.22 12.254 58.487 12.69 57.298 12.69C55.871 12.69 55.158 11.917 54.998 10.886H52.362C52.62 13.324 54.602 14.672 57.218 14.672C59.636 14.672 61.836 13.364 61.836 11.223C61.836 9.023 60.033 8.488 57.912 8.013L56.485 7.695C55.475 7.477 55.058 7.041 55.058 6.467C55.058 5.813 55.772 5.436 56.782 5.436C58.051 5.436 58.844 6.07 59.062 6.962H61.618ZM68.68 12.57C67.174 12.57 66.182 11.283 66.182 9.083C66.182 6.943 67.174 5.614 68.68 5.614C70.107 5.614 71.118 7.021 71.118 9.102C71.118 11.184 70.107 12.571 68.68 12.571V12.57ZM66.282 17.883V13.066C66.975 14.256 68.224 14.672 69.334 14.672C71.871 14.672 73.992 12.492 73.992 9.082C73.992 5.733 71.93 3.513 69.354 3.513C68.006 3.513 66.856 4.108 66.282 5.119V3.75H63.547V17.881H66.282V17.883ZM85.804 9.836C85.904 6.07 83.862 3.513 80.572 3.513C77.421 3.513 75.221 5.872 75.221 9.043C75.221 12.115 77.223 14.672 80.651 14.672C83.565 14.672 85.111 12.908 85.685 11.322H82.871C82.316 12.254 81.484 12.552 80.631 12.552C79.323 12.552 78.095 11.659 77.936 9.836H85.804ZM80.552 5.516C81.702 5.516 82.97 6.149 83.03 7.953H77.976C78.194 6.149 79.521 5.515 80.552 5.515V5.516ZM92.514 3.513C89.324 3.513 87.164 5.853 87.164 9.103C87.164 12.333 89.204 14.672 92.395 14.672C94.615 14.672 96.815 13.701 97.45 10.787H94.833C94.457 12.056 93.486 12.551 92.534 12.551C91.028 12.551 89.958 11.303 89.958 9.063C89.958 6.843 91.088 5.634 92.514 5.634C93.564 5.634 94.516 6.367 94.734 7.398H97.35C96.974 4.762 94.754 3.513 92.514 3.513ZM99.46 3.751H97.953V5.634H99.46V11.54C99.46 13.66 99.915 14.414 102.373 14.414H104.375V12.452H103.542C102.571 12.452 102.195 12.234 102.195 11.144V5.634H104.414V3.75H102.195V0.856998H99.46V3.751ZM110.804 5.654C112.31 5.654 113.381 6.863 113.381 9.102C113.381 11.342 112.31 12.532 110.804 12.532C109.298 12.532 108.228 11.342 108.228 9.102C108.228 6.862 109.298 5.654 110.804 5.654ZM110.804 14.672C113.5 14.672 116.156 12.829 116.156 9.102C116.156 5.357 113.5 3.513 110.804 3.513C108.109 3.513 105.453 5.357 105.453 9.103C105.453 12.829 108.109 14.672 110.804 14.672ZM124 3.81C123.802 3.78711 123.604 3.7741 123.405 3.771C122.156 3.771 121.205 4.287 120.591 5.614V3.751H117.896V14.414H120.631V8.825C120.631 6.823 121.522 6.328 122.87 6.328C123.266 6.328 123.604 6.328 124 6.388V3.81ZM38.712 26.077C37.936 26.077 37.425 25.414 37.425 24.28C37.425 23.178 37.935 22.494 38.712 22.494C39.447 22.494 39.968 23.218 39.968 24.291C39.968 25.363 39.447 26.077 38.712 26.077ZM37.476 28.814V26.333C37.834 26.945 38.477 27.16 39.049 27.16C40.356 27.16 41.449 26.037 41.449 24.28C41.449 22.555 40.386 21.411 39.059 21.411C38.365 21.411 37.773 21.718 37.476 22.238V21.534H36.067V28.814H37.477H37.476ZM45.504 21.564C45.4024 21.5523 45.3003 21.5456 45.198 21.544C44.554 21.544 44.064 21.809 43.748 22.493V21.533H42.36V27.026H43.77V24.147C43.77 23.116 44.229 22.86 44.923 22.86C45.127 22.86 45.301 22.86 45.505 22.891V21.564H45.504ZM48.617 22.514C49.393 22.514 49.944 23.137 49.944 24.291C49.944 25.444 49.394 26.057 48.617 26.057C47.841 26.057 47.29 25.444 47.29 24.291C47.29 23.137 47.841 22.514 48.617 22.514ZM48.617 27.16C50.006 27.16 51.374 26.21 51.374 24.29C51.374 22.36 50.006 21.411 48.617 21.411C47.229 21.411 45.86 22.361 45.86 24.291C45.86 26.211 47.229 27.16 48.617 27.16ZM54.749 21.411C53.105 21.411 51.992 22.616 51.992 24.291C51.992 25.955 53.044 27.16 54.688 27.16C55.831 27.16 56.964 26.66 57.291 25.158H55.944C55.75 25.812 55.249 26.068 54.759 26.068C53.983 26.068 53.432 25.424 53.432 24.27C53.432 23.127 54.014 22.504 54.749 22.504C55.0144 22.5034 55.272 22.5931 55.4797 22.7583C55.6874 22.9234 55.8328 23.1543 55.892 23.413H57.24C57.046 22.055 55.903 21.411 54.749 21.411ZM63.278 24.668C63.328 22.728 62.277 21.411 60.582 21.411C58.959 21.411 57.825 22.626 57.825 24.26C57.825 25.842 58.856 27.16 60.623 27.16C62.123 27.16 62.92 26.25 63.216 25.434H61.766C61.48 25.914 61.052 26.067 60.612 26.067C59.939 26.067 59.306 25.607 59.224 24.668H63.278ZM60.572 22.443C61.164 22.443 61.817 22.769 61.848 23.698H59.245C59.357 22.769 60.041 22.443 60.572 22.443ZM68.646 23.188C68.452 21.922 67.37 21.391 66.226 21.391C65.042 21.391 63.98 22.044 63.98 23.025C63.98 24.025 64.664 24.454 65.695 24.668L66.512 24.842C66.992 24.954 67.41 25.107 67.41 25.516C67.41 25.914 67.033 26.139 66.42 26.139C65.685 26.139 65.318 25.74 65.236 25.209H63.878C64.01 26.465 65.032 27.159 66.379 27.159C67.625 27.159 68.758 26.486 68.758 25.383C68.758 24.25 67.828 23.974 66.737 23.729L66 23.566C65.48 23.453 65.265 23.229 65.265 22.933C65.265 22.596 65.633 22.402 66.154 22.402C66.807 22.402 67.215 22.728 67.328 23.188H68.645H68.646ZM74.05 23.188C73.856 21.922 72.774 21.391 71.63 21.391C70.446 21.391 69.385 22.044 69.385 23.025C69.385 24.025 70.068 24.454 71.1 24.668L71.917 24.842C72.397 24.954 72.815 25.107 72.815 25.516C72.815 25.914 72.437 26.139 71.825 26.139C71.089 26.139 70.722 25.74 70.64 25.209H69.282C69.415 26.465 70.436 27.159 71.784 27.159C73.029 27.159 74.163 26.486 74.163 25.383C74.163 24.25 73.233 23.974 72.141 23.729L71.406 23.566C70.886 23.453 70.671 23.229 70.671 22.933C70.671 22.596 71.038 22.402 71.559 22.402C72.213 22.402 72.621 22.728 72.733 23.188H74.05ZM77.482 22.514C78.258 22.514 78.81 23.137 78.81 24.291C78.81 25.444 78.258 26.057 77.482 26.057C76.706 26.057 76.155 25.444 76.155 24.291C76.155 23.137 76.706 22.514 77.482 22.514ZM77.482 27.16C78.871 27.16 80.239 26.21 80.239 24.29C80.239 22.36 78.871 21.411 77.482 21.411C76.094 21.411 74.726 22.361 74.726 24.291C74.726 26.211 76.094 27.16 77.482 27.16ZM84.28 21.564C84.1784 21.5523 84.0763 21.5456 83.974 21.544C83.331 21.544 82.841 21.809 82.524 22.493V21.533H81.136V27.026H82.545V24.147C82.545 23.116 83.005 22.86 83.698 22.86C83.903 22.86 84.076 22.86 84.28 22.891V21.564Z" fill="#1400DC"/>
</g>
<defs>
<clipPath id="clip0_508_753">
<rect width="124" height="29" fill="white"/>
</clipPath>
</defs>
</svg>
